X:066
T:Hornpipe TS.066
M:C
L:1/8
Q:1/2=90
S:Thomas Sands’ MS,1810,Lincolnshire
R:.hornpipe
O:England;Lincolnshire
Z:vmp.Ruairidh Greig, 2011
K:D
A2|FDFA d2ef|gefd c2BA|BdAd GdFd|edef gfef|
FDFA d2ef|gefdc2BA|Bcdg fdec|d2d2d2:|
|:”qu. in ms”A2|defd e2ef|gefd c2BA|FAdA BAGF|E2E2E2A2|
defd e2ef|gefdc2BA|afge fdBe|d2d2d2:|]

